X:1
T:Unser Vater
T:Christian Heinrich Rinck
T:Unser Vater
T:CPDL - Creative Commons Attribution Non Commercial 3.0
T:CPDL - Creative Commons Attribution Non Commercial 3.0
T:CPDL - Creative Commons Attribution Non Commercial 3.0
T:CPDL - Creative Commons Attribution Non Commercial 3.0
C:Christian Heinrich Rinck
Z:CPDL - Creative Commons Attribution Non Commercial 3.0
%%score [ ( 1 2 ) ( 3 4 ) ]
L:1/8
Q:1/4=80
M:4/4
K:Eb
V:1 treble nm="Sopran\nAlt"
V:2 treble 
V:3 bass nm="Tenor\nBass"
V:4 bass 
V:1
"^Sehr langsam""^Halbchor"!pp! E4 E4 | F4 F4 | G3!<(! G =A2 A2!<)! |!>(! B4 !breath!B2!>)! B2 | %4
w: Un- ser|Va- ter,|der du bist im|Him- mel, ge-|
!<(! c4 c2 c2 | (d2 c2)!<)! B2 ec |!f! B8 |!>(! =A4!>)! z2!f! Bd | f4 c2 c2 | d4 z2 B2 | f4 c2 c2 | %11
w: hei- li- get|wer- * de dein *|Na-|me! Zu uns|kom- me dein|Reich, dein|Wil- le ge-|
 d3 c B2 c2 | d6 c2 |!p! B2 c2 =f2 ec |!mf! B4-!>(! B=AGA!>)! | B2 z2"^Soli"!pp! F2 F2 | %16
w: sche- he, wie im|Him- mel,|al- so auch auf *|Er- * * * *|den. Un- ser|
!<(! F4!<)! F4 |!>(! F4!>)!!mf! B2 d2 |!>(! c4!>)!!p!!<(! c2 d2!<)! | e3 e d2!>(! c2 | %20
w: täg- lich|Brot gib uns|heut', und ver-|gib uns uns'- re|
 B2!>)!!p! B2 e2 d2 |!<(! c2!<)! cc d2 f2 |!f! e3 e f2 g2 | (f2 d2) (e2 c2) | %24
w: Schuld, wie wir ver-|ge- ben, wie wir ver-|ge- ben un- sern|Schul- * di- *|
 B4 z2"^Halbchor"!f! B2 | !^!_d4 _G2 G2 | B4 E2 F2 |!>(! _G8!>)! | F2!p!!<(! F2 F2 =G2!<)! | %29
w: gern. Und|füh- re uns|nicht in Ver-|su-|chung, son- dern er-|
 _A3 A A4 |!f! _G4 G2 G2 |!>(! (_G4 F2 E2)!>)! | !fermata!F4 !fermata!z2"^ganzer\nChor"!f! B2 || %33
w: lö- se uns|von al- lem|Ü- * *|bel; denn|
[M:2/2][Q:1/4=100]"^Majestätisch" !^!E4 F2 G2 | !^!A6 G2 | !^!c6 B2 | !^!A2 B2 !^!A2 G2 | %37
w: dein ist das|Reich, die|Kraft und|dein die Herr- lich-|
 F4 (B2 A2) | !^!G2 A2 !^!G2 F2 | E6!ff! B2 |] !^!e4 d2 _d2 | !^!c6 c2 | !^!f4 =e2 _e2 | !^!d6 d2 | %44
w: keit, ja _|dein die Herr- lich-|keit, denn|dein ist das|Reich, und|dein ist die|Kraft und|
 e2 d2 e2 f2 | g6 =e2 | f2 =e2 f2 g2 | a6 f2 | _e4 d4 | e6 z2 | f8 |!>(! g6!>)! z2 | d8 | %53
w: dein die Herr- lich-|keit, und|dein die Herr- lich-|keit, in|E- wig-|keit!|A-|men!|A-|
!>(! !fermata!e6!>)! z2 |] %54
w: men!|
V:2
 B,4 E4 | E4 D4 | E3 G G2 ^F2 | G4 G2 G2 | =A4 A2 A2 | =A4 G2 G2 | (F4 =E4) | F4 x2 FF | F4 F2 F2 | %9
w: |||||||||
 F4 x2 F2 | F4 F2 F2 | F3 ^F G2 G2 | (G2!>(! ^F=E) F4 | G2 _G2!>)! =F2 =G2 | (F2 =E2 _E4) | %15
w: |||Him- * * mel,|||
 D2 x2 D2 D2 | (C2 D2 E2) DC | D4 F2 F2 | F4 G2 G2 | G3 G ^F2 =A2 | G2 G2 c2 B2 | B2 =AA B2 B2 | %22
w: |täg- * * lich *||||||
 B3 B B2 B2 | B4 =A4 | B4 x2 B2 | _d4 _G2 G2 | B4 E2 D2 | E8 | D2 D2 D2 =E2 | F3 F F4 | E4 E2 E2 | %31
w: |||||||||
 (E4 D2 C2) | D4 x2 B,2 ||[M:2/2] E4 F2 G2 | A6 G2 | c6 B2 | A2 B2 A2 G2 | F4 (B2 A2) | %38
w: |||||||
 G2 A2 G2 F2 | E6 G2 |] G4 A2 B2 | A6 B2 | =A4 B2 c2 | B6 B2 | B2 B2 B2 B2 | B6 c2 | c2 c2 c2 c2 | %47
w: |||||||||
 c6 c2 | B6 A2 | G6 x2 | B8 | B6 x2 | A8 | G6 x2 |] %54
w: |||||||
V:3
!pp! G,4 G,4 | B,4 B,4 | B,3 B, D2 D2 | D4 !breath!D2 D2 | E4 E2 E2 | D4 D2 E2 |!f! (D4 _D4) | %7
w: |||||||
 C4 z2!f! =DD | C4 =A,2 A,2 | B,4 z2 D2 | C4 =A,2 A,2 | B,3 C D2 E2 | =A,4 A,4 | %13
w: ||||||
!p! G,2 =A,2 B,3 E |!mf! (D2 ^C2 =C4) | B,2 z2!pp! B,2 B,2 | (=A,2 B,2 C2) B,A, | B,4!mf! B,2 B,2 | %18
w: |||||
 (B,2 =A,2)!p! G,2 =B,2 | C3 C =A,2 D2 | D2 z2 z2!p! DE | F2 E2 D2 D2 |!f! E3 E D2 ^C2 | %23
w: ||* wie _|wir, * * *||
 (D2 B,2) (=C2 E2) | D4 z2!f! B,2 | !^!_D4 _G,2 G,2 | B,4 E,2 B,2 | (B,4 C4) | F,2 z2 z4 | %29
w: ||||||
 z2!p! D2 D2 D2 | E3 B, B,2 B,B, | B,8 | !fermata!B,4 !fermata!z2!f! B,2 ||[M:2/2] !^!E,4 F,2 G,2 | %34
w: son- dern er-|lö- se uns von dem|Ü-|bel; *||
 !^!A,6 G,2 | !^!C6 B,2 | !^!A,2 B,2 !^!A,2 G,2 | F,4 (B,2 A,2) | !^!G,2 A,2 !^!G,2 F,2 | %39
w: |||||
 E,6!ff! E2 |] !^!E4 E2 E2 | !^!E6 =E2 | !^!F4 F2 F2 | !^!F6 F2 | G2 F2 E2 D2 | E6 G2 | %46
w: |||||||
 A2 G2 F2 =E2 | F6 F2 | G4 F4 | E6 z2 | D8 | E6 z2 | F8 | !fermata!E6 z2 |] %54
w: ||||||||
V:4
 E,4 C,4 | B,,4 B,,4 | E,3 E, D,2 D,2 | G,4 G,2 G,2 | =F,4 F,2 F,2 | ^F,4 G,2 C,2 | =F,8 | %7
w: |||||||
 F,4 x2 B,B, | =A,4 F,2 F,2 | B,4 x2 B,2 | =A,4 F,2 F,2 | B,3 =A, G,2 E,2 | D,4 D,4 | %13
w: ||||||
 E,2 E,2 D,2 E,2 | F,8 | B,,2 x2 B,,2 B,,2 | F,4 F,4 | B,,4 D,2 B,,2 | F,4 E,2 D,2 | %19
w: ||||||
 C,3 C, D,2 ^F,2 | G,2 x2 z4 | z2 =F,2 B,2 _A,2 | G,3 G, F,2 =E,2 | F,4 F,4 | B,,4 x2 B,2 | %25
w: ||wie wir *||||
 _D4 _G,2 G,2 | B,4 E,2 B,,2 | (E,4 =A,,4) | B,,2 x2 x4 | x2 B,,2 B,,2 B,,2 | E,3 E, E,2 E,E, | %31
w: ||||||
 B,,8 | B,,4 x2 B,,2 ||[M:2/2] E,4 F,2 G,2 | A,6 G,2 | C6 B,2 | A,2 B,2 A,2 G,2 | F,4 (B,2 A,2) | %38
w: |||||||
 G,2 A,2 G,2 F,2 | E,6 E,2 |] E,4 F,2 G,2 | A,6 G,2 | F,4 G,2 =A,2 | B,6 _A,2 | G,2 A,2 G,2 F,2 | %45
w: |||||||
 E,6 B,2 | A,2 B,2 A,2 G,2 | F,6 A,2 | B,4 B,,4 | E,6 x2 | B,8 | E,6 x2 | B,,8 | E,6 x2 |] %54
w: |||||||||

